X: 2
T: Christmas Day in the Morning
M: 6/8
L: 1/8
R: jig
K: D Major
|: A |
dcd edB | A2 F FEF | A2 F FEF | AFE DFA |
dcd edB | A2 F FEF | AFE DEF | EFE D2 :|
|: B |
A2 B d2 e | ~f3 fed | ~e3 edB | ~d3 edB |
A2 B d2 e | ~f3 fed | edB ABd | efe d2 :|
